packages/ffe-icons/icons/open/400/sm/snowing_heavy.svg

<svg xmlns="http://www.w3.org/2000/svg" height="20" viewBox="0 -960 960 960" width="20"><path d="M210.211-228Q195-228 184.5-238.289q-10.5-10.29-10.5-25.5Q174-279 184.289-289.5q10.29-10.5 25.5-10.5Q225-300 235.5-289.711q10.5 10.29 10.5 25.5Q246-249 235.711-238.5q-10.29 10.5-25.5 10.5Zm180 0Q375-228 364.5-238.289q-10.5-10.29-10.5-25.5Q354-279 364.289-289.5q10.29-10.5 25.5-10.5Q405-300 415.5-289.711q10.5 10.29 10.5 25.5Q426-249 415.711-238.5q-10.29 10.5-25.5 10.5Zm180 0Q555-228 544.5-238.289q-10.5-10.29-10.5-25.5Q534-279 544.289-289.5q10.29-10.5 25.5-10.5Q585-300 595.5-289.711q10.5 10.29 10.5 25.5Q606-249 595.711-238.5q-10.29 10.5-25.5 10.5Zm180 0Q735-228 724.5-238.289q-10.5-10.29-10.5-25.5Q714-279 724.289-289.5q10.29-10.5 25.5-10.5Q765-300 775.5-289.711q10.5 10.29 10.5 25.5Q786-249 775.711-238.5q-10.29 10.5-25.5 10.5Zm-630-144Q105-372 94.5-382.289q-10.5-10.29-10.5-25.5Q84-423 94.29-433.5q10.289-10.5 25.499-10.5Q135-444 145.5-433.711q10.5 10.29 10.5 25.5Q156-393 145.711-382.5q-10.29 10.5-25.5 10.5Zm180 0Q285-372 274.5-382.289q-10.5-10.29-10.5-25.5Q264-423 274.289-433.5q10.29-10.5 25.5-10.5Q315-444 325.5-433.711q10.5 10.29 10.5 25.5Q336-393 325.711-382.5q-10.29 10.5-25.5 10.5Zm180 0Q465-372 454.5-382.289q-10.5-10.29-10.5-25.5Q444-423 454.289-433.5q10.29-10.5 25.5-10.5Q495-444 505.5-433.711q10.5 10.29 10.5 25.5Q516-393 505.711-382.5q-10.29 10.5-25.5 10.5Zm180 0Q645-372 634.5-382.289q-10.5-10.29-10.5-25.5Q624-423 634.289-433.5q10.29-10.5 25.5-10.5Q675-444 685.5-433.711q10.5 10.29 10.5 25.5Q696-393 685.711-382.5q-10.29 10.5-25.5 10.5Zm180 0Q825-372 814.5-382.289q-10.5-10.29-10.5-25.5Q804-423 814.289-433.5q10.29-10.5 25.5-10.5Q855-444 865.5-433.711q10.5 10.29 10.5 25.5Q876-393 865.711-382.5q-10.29 10.5-25.5 10.5Zm-630-144Q195-516 184.5-526.289q-10.5-10.29-10.5-25.5Q174-567 184.289-577.5q10.29-10.5 25.5-10.5Q225-588 235.5-577.711q10.5 10.29 10.5 25.5Q246-537 235.711-526.5q-10.29 10.5-25.5 10.5Zm180 0Q375-516 364.5-526.289q-10.5-10.29-10.5-25.5Q354-567 364.289-577.5q10.29-10.5 25.5-10.5Q405-588 415.5-577.711q10.5 10.29 10.5 25.5Q426-537 415.711-526.5q-10.29 10.5-25.5 10.5Zm180 0Q555-516 544.5-526.289q-10.5-10.29-10.5-25.5Q534-567 544.289-577.5q10.29-10.5 25.5-10.5Q585-588 595.5-577.711q10.5 10.29 10.5 25.5Q606-537 595.711-526.5q-10.29 10.5-25.5 10.5Zm180 0Q735-516 724.5-526.289q-10.5-10.29-10.5-25.5Q714-567 724.289-577.5q10.29-10.5 25.5-10.5Q765-588 775.5-577.711q10.5 10.29 10.5 25.5Q786-537 775.711-526.5q-10.29 10.5-25.5 10.5Zm-630-144Q105-660 94.5-670.289q-10.5-10.29-10.5-25.5Q84-711 94.29-721.5q10.289-10.5 25.499-10.5Q135-732 145.5-721.711q10.5 10.29 10.5 25.5Q156-681 145.711-670.5q-10.29 10.5-25.5 10.5Zm180 0Q285-660 274.5-670.289q-10.5-10.29-10.5-25.5Q264-711 274.289-721.5q10.29-10.5 25.5-10.5Q315-732 325.5-721.711q10.5 10.29 10.5 25.5Q336-681 325.711-670.5q-10.29 10.5-25.5 10.5Zm180 0Q465-660 454.5-670.289q-10.5-10.29-10.5-25.5Q444-711 454.289-721.5q10.29-10.5 25.5-10.5Q495-732 505.5-721.711q10.5 10.29 10.5 25.5Q516-681 505.711-670.5q-10.29 10.5-25.5 10.5Zm180 0Q645-660 634.5-670.289q-10.5-10.29-10.5-25.5Q624-711 634.289-721.5q10.29-10.5 25.5-10.5Q675-732 685.5-721.711q10.5 10.29 10.5 25.5Q696-681 685.711-670.5q-10.29 10.5-25.5 10.5Zm180 0Q825-660 814.5-670.289q-10.5-10.29-10.5-25.5Q804-711 814.289-721.5q10.29-10.5 25.5-10.5Q855-732 865.5-721.711q10.5 10.29 10.5 25.5Q876-681 865.711-670.5q-10.29 10.5-25.5 10.5Z"/></svg>

<svg xmlns="http://www.w3.org/2000/svg" height="20" viewBox="0 -960 960 960" width="20"><path d="M210.21-228q-15.21 0-25.71-10.29t-10.5-25.5q0-15.21 10.29-25.71t25.5-10.5q15.21 0 25.71 10.29t10.5 25.5q0 15.21-10.29 25.71t-25.5 10.5Zm180 0q-15.21 0-25.71-10.29t-10.5-25.5q0-15.21 10.29-25.71t25.5-10.5q15.21 0 25.71 10.29t10.5 25.5q0 15.21-10.29 25.71t-25.5 10.5Zm180 0q-15.21 0-25.71-10.29t-10.5-25.5q0-15.21 10.29-25.71t25.5-10.5q15.21 0 25.71 10.29t10.5 25.5q0 15.21-10.29 25.71t-25.5 10.5Zm180 0q-15.21 0-25.71-10.29t-10.5-25.5q0-15.21 10.29-25.71t25.5-10.5q15.21 0 25.71 10.29t10.5 25.5q0 15.21-10.29 25.71t-25.5 10.5Zm-630-144Q105-372 94.5-382.29T84-407.79Q84-423 94.29-433.5t25.5-10.5q15.21 0 25.71 10.29t10.5 25.5q0 15.21-10.29 25.71t-25.5 10.5Zm180 0q-15.21 0-25.71-10.29t-10.5-25.5q0-15.21 10.29-25.71t25.5-10.5q15.21 0 25.71 10.29t10.5 25.5q0 15.21-10.29 25.71t-25.5 10.5Zm180 0q-15.21 0-25.71-10.29t-10.5-25.5q0-15.21 10.29-25.71t25.5-10.5q15.21 0 25.71 10.29t10.5 25.5q0 15.21-10.29 25.71t-25.5 10.5Zm180 0q-15.21 0-25.71-10.29t-10.5-25.5q0-15.21 10.29-25.71t25.5-10.5q15.21 0 25.71 10.29t10.5 25.5q0 15.21-10.29 25.71t-25.5 10.5Zm180 0q-15.21 0-25.71-10.29t-10.5-25.5q0-15.21 10.29-25.71t25.5-10.5q15.21 0 25.71 10.29t10.5 25.5q0 15.21-10.29 25.71t-25.5 10.5Zm-630-144q-15.21 0-25.71-10.29t-10.5-25.5q0-15.21 10.29-25.71t25.5-10.5q15.21 0 25.71 10.29t10.5 25.5q0 15.21-10.29 25.71t-25.5 10.5Zm180 0q-15.21 0-25.71-10.29t-10.5-25.5q0-15.21 10.29-25.71t25.5-10.5q15.21 0 25.71 10.29t10.5 25.5q0 15.21-10.29 25.71t-25.5 10.5Zm180 0q-15.21 0-25.71-10.29t-10.5-25.5q0-15.21 10.29-25.71t25.5-10.5q15.21 0 25.71 10.29t10.5 25.5q0 15.21-10.29 25.71t-25.5 10.5Zm180 0q-15.21 0-25.71-10.29t-10.5-25.5q0-15.21 10.29-25.71t25.5-10.5q15.21 0 25.71 10.29t10.5 25.5q0 15.21-10.29 25.71t-25.5 10.5Zm-630-144Q105-660 94.5-670.29T84-695.79Q84-711 94.29-721.5t25.5-10.5q15.21 0 25.71 10.29t10.5 25.5q0 15.21-10.29 25.71t-25.5 10.5Zm180 0q-15.21 0-25.71-10.29t-10.5-25.5q0-15.21 10.29-25.71t25.5-10.5q15.21 0 25.71 10.29t10.5 25.5q0 15.21-10.29 25.71t-25.5 10.5Zm180 0q-15.21 0-25.71-10.29t-10.5-25.5q0-15.21 10.29-25.71t25.5-10.5q15.21 0 25.71 10.29t10.5 25.5q0 15.21-10.29 25.71t-25.5 10.5Zm180 0q-15.21 0-25.71-10.29t-10.5-25.5q0-15.21 10.29-25.71t25.5-10.5q15.21 0 25.71 10.29t10.5 25.5q0 15.21-10.29 25.71t-25.5 10.5Zm180 0q-15.21 0-25.71-10.29t-10.5-25.5q0-15.21 10.29-25.71t25.5-10.5q15.21 0 25.71 10.29t10.5 25.5q0 15.21-10.29 25.71t-25.5 10.5Z"/></svg>
